source/icons/mass-gain-mobile.svg

<svg width="67" height="50" viewBox="0 0 67 50" fill="none" xmlns="http://www.w3.org/2000/svg">
<circle cx="34" cy="25" r="25" fill="#68B738"/>
<g clip-path="url(#clip0_95_1)">
<path d="M61.5591 13.8784C62.1364 12.96 62.9036 12.1757 63.8091 11.5784C64.3091 11.2284 64.6091 11.2284 64.9091 11.8784C65.3091 12.8284 65.6591 13.8284 65.3591 14.8784C65.3045 15.0565 65.2942 15.2452 65.3291 15.4282C65.3639 15.6112 65.4429 15.7829 65.5591 15.9284C65.8591 16.3284 66.1091 16.7284 66.3591 17.0784C66.6994 17.5103 66.9201 18.0241 66.9991 18.5682C67.078 19.1123 67.0125 19.6676 66.8091 20.1784C66.6256 20.6743 66.5908 21.213 66.7091 21.7284C66.809 22.2234 66.809 22.7334 66.7091 23.2284C66.6687 23.5991 66.5187 23.9494 66.2782 24.2344C66.0377 24.5194 65.7177 24.7262 65.3591 24.8284C64.7196 24.9501 64.1488 25.3069 63.7591 25.8284C63.7119 25.9052 63.6457 25.9686 63.5669 26.0124C63.488 26.0562 63.3993 26.0789 63.3091 26.0784C62.7091 26.1784 61.2091 24.8284 61.2091 24.2284V23.9284C61.2591 22.1284 61.1591 21.9784 59.5091 21.2284C59.1638 21.1066 58.8544 20.9004 58.6091 20.6284C58.3091 20.2284 57.9091 20.2784 57.4591 20.4284C57.0091 20.5784 56.7591 20.8784 56.8091 21.3784C56.9599 22.5889 57.0101 23.8097 56.9591 25.0284C56.9624 25.1675 56.9966 25.3041 57.0591 25.4284C58.6091 27.6784 59.2091 30.3284 59.9591 32.8784C60.5591 34.8284 61.6591 35.8784 63.6591 36.0284C63.9792 36.054 64.2968 36.1041 64.6091 36.1784C65.02 36.2444 65.4017 36.4322 65.7048 36.7174C66.0078 37.0027 66.2183 37.3723 66.3091 37.7784C66.6591 38.8284 66.4591 39.0784 65.4091 39.0784H62.1591C61.7384 39.0997 61.3259 38.9562 61.0091 38.6784C60.5031 38.2514 59.9282 37.9132 59.3091 37.6784C58.6247 37.4258 58.0323 36.9728 57.6091 36.3784C57.0234 35.5602 56.3531 34.806 55.6091 34.1284C54.2091 32.6784 52.7091 31.2784 51.4091 29.7784C50.4195 28.7563 49.8486 27.4006 49.8091 25.9784C49.8091 25.5284 49.7091 25.3284 49.2091 25.5284C49.0594 25.6234 48.8864 25.6753 48.7091 25.6784C47.3091 25.6784 46.6091 26.5284 46.1091 27.7784C45.6591 28.8284 45.0591 29.8284 44.5091 30.8784C44.1972 31.5357 44.0269 32.2511 44.0091 32.9784C44.0091 34.1784 44.3091 34.5784 45.4091 34.9784C46.1091 35.2284 46.7591 35.4784 47.1091 36.1784C47.5091 36.9784 47.4091 37.1784 46.5591 37.2284H43.1591C42.9631 37.2478 42.7659 37.2052 42.5955 37.1065C42.425 37.0078 42.2899 36.8581 42.2091 36.6784L41.3091 35.1784C41.0438 34.7871 40.874 34.3389 40.8132 33.87C40.7524 33.4011 40.8024 32.9245 40.9591 32.4784C41.1755 31.6102 41.1926 30.7042 41.0091 29.8284C40.8831 29.2185 40.8939 28.5882 41.0409 27.9829C41.1879 27.3777 41.4674 26.8126 41.8591 26.3284C42.1591 25.9784 42.1591 25.8284 41.6591 25.7284C39.6146 25.2941 37.6325 24.6054 35.7591 23.6784C35.7459 23.6784 35.7331 23.6732 35.7238 23.6638C35.7144 23.6544 35.7091 23.6417 35.7091 23.6284C34.1091 23.0284 33.8091 23.1284 33.3591 24.7784C32.9591 26.1784 32.5591 27.5784 32.2591 29.0284C31.9091 30.6284 32.3091 32.1284 32.8091 33.6284C33.0091 34.2284 33.6091 34.1784 34.0591 34.3284C35.0591 34.6284 35.9091 35.0284 36.3091 36.0784C36.6591 36.8784 36.6091 36.9784 35.7591 36.9784C34.9091 36.9784 34.0591 36.9284 33.1591 36.9784C32.3997 36.9922 31.6584 36.7451 31.0591 36.2784C28.6591 34.6784 27.9591 32.2284 27.7591 29.5784C27.6591 27.9284 26.7591 26.6284 25.7091 25.3784C25.5091 25.1284 25.3091 25.0284 25.0091 25.2284C23.9359 25.8202 22.8153 26.3219 21.6591 26.7284C19.2462 27.5804 17.1289 29.1077 15.5591 31.1284C14.9729 31.8659 14.5933 32.746 14.4591 33.6784C14.3091 34.5784 14.5591 34.9784 15.4591 35.2284C16.3591 35.4784 16.8091 35.9784 16.9091 36.9284C16.9591 37.3284 16.8091 37.5284 16.4091 37.5284H12.3591C12.2266 37.519 12.0982 37.4778 11.9851 37.4081C11.8719 37.3385 11.7772 37.2425 11.7091 37.1284C11.081 36.3508 10.7449 35.3779 10.7591 34.3784C10.7329 32.6509 10.8837 30.9252 11.2091 29.2284C11.2759 28.7203 11.4656 28.2361 11.7618 27.8178C12.0581 27.3996 12.4519 27.06 12.9091 26.8284C15.8591 25.4284 17.4091 22.7784 18.8091 20.0284C19.1091 19.4784 18.8591 19.3784 18.3591 19.4284C16.9598 19.6227 15.634 20.1737 14.5091 21.0284C13.0362 22.1029 11.6487 23.2897 10.3591 24.5784C8.98394 25.9753 7.16046 26.8427 5.20911 27.0284C1.55911 27.2284 -0.140885 25.1784 0.00911497 21.8784C0.0426462 20.7532 0.466939 19.6748 1.20912 18.8284C1.46713 18.4939 1.81898 18.2439 2.21975 18.1103C2.62052 17.9767 3.05201 17.9656 3.45912 18.0784C4.20912 18.2784 4.40911 18.6784 4.10911 19.4284C3.95911 19.7284 3.75911 19.9784 3.60911 20.2784C3.39341 20.5849 3.22488 20.922 3.10911 21.2784C2.55911 22.7784 3.30911 23.8284 4.85911 23.9784C6.50911 24.1284 7.85912 23.4284 9.10912 22.4284C10.6151 21.2226 11.9595 19.8277 13.1091 18.2784C13.9687 17.1471 15.0512 16.2041 16.2895 15.5075C17.5279 14.8109 18.8959 14.3756 20.3091 14.2284C21.4591 14.0784 22.4591 13.5784 23.5591 13.2784C25.6164 12.6512 27.7586 12.3476 29.9091 12.3784C30.9052 12.4199 31.8974 12.2317 32.8091 11.8284C35.2591 10.8284 37.8091 10.8284 40.3591 11.3284C42.3591 11.7284 44.3591 12.2284 46.3091 12.7284C47.4696 12.9447 48.6629 12.9106 49.8091 12.6284C52.0034 12.0722 54.248 11.7372 56.5091 11.6284C57.9904 11.5564 59.4667 11.8482 60.8091 12.4784C61.8091 12.9284 61.8091 12.9284 61.5591 13.8784Z" fill="black"/>
</g>
<defs>
<clipPath id="clip0_95_1">
<rect width="67" height="28" fill="white" transform="translate(0 11)"/>
</clipPath>
</defs>
</svg>

<svg xmlns="http://www.w3.org/2000/svg" fill="none" viewBox="0 0 67 50"><circle cx="34" cy="25" r="25" fill="#68B738"/><path fill="#000" d="M61.56 13.878a7.602 7.602 0 0 1 2.25-2.3c.5-.35.8-.35 1.1.3.4.95.75 1.95.45 3a1.144 1.144 0 0 0 .2 1.05c.3.4.55.8.8 1.15a3.135 3.135 0 0 1 .45 3.1 2.716 2.716 0 0 0-.1 1.55c.099.495.099 1.005 0 1.5a1.875 1.875 0 0 1-1.35 1.6c-.64.122-1.211.479-1.6 1a.525.525 0 0 1-.45.25c-.6.1-2.1-1.25-2.1-1.85v-.3c.05-1.8-.05-1.95-1.7-2.7a2.195 2.195 0 0 1-.9-.6c-.3-.4-.7-.35-1.15-.2-.45.15-.7.45-.65.95.15 1.21.2 2.432.15 3.65a.94.94 0 0 0 .1.4c1.55 2.25 2.15 4.9 2.9 7.45.6 1.95 1.7 3 3.7 3.15.32.026.637.076.95.15a2.08 2.08 0 0 1 1.7 1.6c.35 1.05.15 1.3-.9 1.3h-3.25a1.62 1.62 0 0 1-1.15-.4 5.856 5.856 0 0 0-1.7-1 3.63 3.63 0 0 1-1.7-1.3 14.307 14.307 0 0 0-2-2.25c-1.4-1.45-2.9-2.85-4.2-4.35a5.69 5.69 0 0 1-1.6-3.8c0-.45-.1-.65-.6-.45a.965.965 0 0 1-.5.15c-1.4 0-2.1.85-2.6 2.1-.45 1.05-1.05 2.05-1.6 3.1a5.195 5.195 0 0 0-.5 2.1c0 1.2.3 1.6 1.4 2 .7.25 1.35.5 1.7 1.2.4.8.3 1-.55 1.05h-3.4a.94.94 0 0 1-.95-.55l-.9-1.5a3.025 3.025 0 0 1-.35-2.7 5.93 5.93 0 0 0 .05-2.65 4.21 4.21 0 0 1 .85-3.5c.3-.35.3-.5-.2-.6a25.03 25.03 0 0 1-5.9-2.05.05.05 0 0 1-.05-.05c-1.6-.6-1.9-.5-2.35 1.15-.4 1.4-.8 2.8-1.1 4.25-.35 1.6.05 3.1.55 4.6.2.6.8.55 1.25.7 1 .3 1.85.7 2.25 1.75.35.8.3.9-.55.9-.85 0-1.7-.05-2.6 0a3.32 3.32 0 0 1-2.1-.7c-2.4-1.6-3.1-4.05-3.3-6.7-.1-1.65-1-2.95-2.05-4.2-.2-.25-.4-.35-.7-.15a22.156 22.156 0 0 1-3.35 1.5 13.355 13.355 0 0 0-6.1 4.4 5.315 5.315 0 0 0-1.1 2.55c-.15.9.1 1.3 1 1.55s1.35.75 1.45 1.7c.05.4-.1.6-.5.6h-4.05a.824.824 0 0 1-.65-.4 4.28 4.28 0 0 1-.95-2.75 25.307 25.307 0 0 1 .45-5.15 3.152 3.152 0 0 1 1.7-2.4c2.95-1.4 4.5-4.05 5.9-6.8.3-.55.05-.65-.45-.6a8.236 8.236 0 0 0-3.85 1.6 35.317 35.317 0 0 0-4.15 3.55 8.335 8.335 0 0 1-5.15 2.45c-3.65.2-5.35-1.85-5.2-5.15a4.845 4.845 0 0 1 1.2-3.05 2.125 2.125 0 0 1 2.25-.75c.75.2.95.6.65 1.35-.15.3-.35.55-.5.85a3.751 3.751 0 0 0-.5 1c-.55 1.5.2 2.55 1.75 2.7 1.65.15 3-.55 4.25-1.55a22.466 22.466 0 0 0 4-4.15 10.396 10.396 0 0 1 7.2-4.05c1.15-.15 2.15-.65 3.25-.95 2.056-.627 4.199-.93 6.35-.9a6.5 6.5 0 0 0 2.9-.55c2.45-1 5-1 7.55-.5 2 .4 4 .9 5.95 1.4a8.288 8.288 0 0 0 3.5-.1 33.9 33.9 0 0 1 6.7-1 9.081 9.081 0 0 1 4.3.85c1 .45 1 .45.75 1.4Z"/></svg>
